X:1
T:Simple Gifts
C:Joseph Brackett
M:4/4
L:1/4
Q:1/4=120
K:D
A | A A A A | B A2 F | A A A A | d2 A2 | d d c B | A2 B c | d A A A | A4 |]
w: 'Tis | the gift to be | sim-ple 'tis | the gift to be | free 'tis | the gift to come | down where we | ought to be and | when
